resources/images/collections/three-bar-chart-dark.svg

<svg width="419" height="428" viewBox="0 0 419 428" fill="none" xmlns="http://www.w3.org/2000/svg">
<g filter="url(#filter0_d_26137_145037)">
<path d="M32 195H153V378H32V195Z" fill="#3443E4"/>
<path d="M98.276 238.438C98.276 239.857 97.996 241.22 97.436 242.526C96.876 243.833 96.148 245.102 95.252 246.334C94.356 247.529 93.348 248.686 92.228 249.806C91.108 250.926 90.0067 251.99 88.924 252.998C88.364 253.521 87.748 254.118 87.076 254.79C86.4413 255.425 85.8253 256.078 85.228 256.75C84.6307 257.422 84.0893 258.057 83.604 258.654C83.156 259.214 82.876 259.681 82.764 260.054H99.452V267.054H73.58C73.5053 266.644 73.468 266.121 73.468 265.486C73.468 264.852 73.468 264.404 73.468 264.142C73.468 262.35 73.748 260.708 74.308 259.214C74.9053 257.721 75.6707 256.34 76.604 255.07C77.5373 253.764 78.5827 252.55 79.74 251.43C80.9347 250.31 82.1107 249.19 83.268 248.07C84.164 247.212 85.004 246.409 85.788 245.662C86.572 244.878 87.2627 244.132 87.86 243.422C88.4573 242.676 88.924 241.948 89.26 241.238C89.596 240.492 89.764 239.745 89.764 238.998C89.764 237.356 89.2973 236.198 88.364 235.526C87.4307 234.854 86.2733 234.518 84.892 234.518C83.884 234.518 82.932 234.686 82.036 235.022C81.1773 235.321 80.3747 235.694 79.628 236.142C78.9187 236.553 78.3027 236.982 77.78 237.43C77.2573 237.841 76.8653 238.177 76.604 238.438L72.46 232.614C74.1027 231.084 76.0067 229.833 78.172 228.862C80.3747 227.854 82.7267 227.35 85.228 227.35C87.5053 227.35 89.4653 227.612 91.108 228.134C92.7507 228.657 94.0947 229.404 95.14 230.374C96.2227 231.308 97.0067 232.465 97.492 233.846C98.0147 235.19 98.276 236.721 98.276 238.438Z" fill="white"/>
<path d="M39.5263 183L32 195H153L144.895 183H39.5263Z" fill="#6371FF"/>
</g>
<g filter="url(#filter1_d_26137_145037)">
<path d="M267 222H387V378H267V222Z" fill="#3443E4"/>
<path d="M326.268 292.894C325.26 292.894 324.196 292.82 323.076 292.67C321.956 292.558 320.873 292.39 319.828 292.166C318.783 291.942 317.831 291.7 316.972 291.438C316.113 291.177 315.441 290.934 314.956 290.71L316.58 283.766C317.551 284.177 318.783 284.625 320.276 285.11C321.807 285.558 323.692 285.782 325.932 285.782C328.508 285.782 330.393 285.297 331.588 284.326C332.783 283.356 333.38 282.049 333.38 280.406C333.38 279.398 333.156 278.558 332.708 277.886C332.297 277.177 331.719 276.617 330.972 276.206C330.225 275.758 329.329 275.46 328.284 275.31C327.276 275.124 326.193 275.03 325.036 275.03H321.788V268.31H325.484C326.305 268.31 327.089 268.236 327.836 268.086C328.62 267.937 329.311 267.694 329.908 267.358C330.505 266.985 330.972 266.5 331.308 265.902C331.681 265.268 331.868 264.484 331.868 263.55C331.868 262.841 331.719 262.225 331.42 261.702C331.121 261.18 330.729 260.75 330.244 260.414C329.796 260.078 329.255 259.836 328.62 259.686C328.023 259.5 327.407 259.406 326.772 259.406C325.167 259.406 323.673 259.649 322.292 260.134C320.948 260.62 319.716 261.217 318.596 261.926L315.628 255.822C316.225 255.449 316.916 255.057 317.7 254.646C318.521 254.236 319.417 253.862 320.388 253.526C321.359 253.19 322.385 252.91 323.468 252.686C324.588 252.462 325.764 252.35 326.996 252.35C329.273 252.35 331.233 252.63 332.876 253.19C334.556 253.713 335.937 254.478 337.02 255.486C338.103 256.457 338.905 257.614 339.428 258.958C339.951 260.265 340.212 261.702 340.212 263.27C340.212 264.801 339.783 266.294 338.924 267.75C338.065 269.169 336.908 270.252 335.452 270.998C337.468 271.82 339.017 273.052 340.1 274.694C341.22 276.3 341.78 278.241 341.78 280.518C341.78 282.31 341.481 283.972 340.884 285.502C340.287 286.996 339.353 288.302 338.084 289.422C336.815 290.505 335.191 291.364 333.212 291.998C331.271 292.596 328.956 292.894 326.268 292.894Z" fill="white"/>
<path d="M274.964 210.054L267.5 222.054H387.5L379.462 210.054H274.964Z" fill="#6371FF"/>
</g>
<g filter="url(#filter2_d_26137_145037)">
<path d="M145 144H275V378H145V144Z" fill="url(#paint0_linear_26137_145037)"/>
</g>
<path d="M197.42 184.31C198.503 183.862 199.623 183.358 200.78 182.798C201.975 182.201 203.132 181.566 204.252 180.894C205.372 180.185 206.436 179.457 207.444 178.71C208.489 177.926 209.423 177.105 210.244 176.246H216.068V215.054H207.724V187.11C206.604 187.857 205.353 188.548 203.972 189.182C202.591 189.78 201.247 190.302 199.94 190.75L197.42 184.31Z" fill="white"/>
<path d="M152.586 132.054L144.5 144.054H274.5L265.792 132.054H152.586Z" fill="#6371FF"/>
<path d="M195.86 6.56153C196.316 5.99967 197.056 5.99967 197.513 6.56153L203.385 13.7895C203.842 14.3513 203.842 15.2623 203.385 15.8241L197.513 23.0521C197.056 23.6139 196.316 23.6139 195.86 23.0521L189.987 15.8241C189.53 15.2623 189.53 14.3513 189.987 13.7895L195.86 6.56153Z" fill="#2735C2"/>
<path d="M221.498 6.56153C221.955 5.99967 222.695 5.99967 223.152 6.56153L229.024 13.7895C229.481 14.3513 229.481 15.2623 229.024 15.8241L223.152 23.0521C222.695 23.6139 221.955 23.6139 221.499 23.0521L215.626 15.8241C215.169 15.2623 215.169 14.3513 215.626 13.7895L221.498 6.56153Z" fill="#2735C2"/>
<path d="M235.5 6.61503V32.0329C235.5 33.5512 233.769 34.5081 232.439 33.7752C227.916 31.2824 218.939 27.1304 209.319 27.1304C199.781 27.1304 191.048 31.2126 186.596 33.7118C185.261 34.4607 183.5 33.5026 183.5 31.9724V6.43447C183.5 4.54835 185.96 3.82597 186.979 5.41254L194.906 17.7432C195.651 18.9019 197.346 18.9 198.088 17.7396L207.742 2.64611C208.482 1.49 210.168 1.48277 210.918 2.6325L220.906 17.957C221.654 19.1051 223.338 19.0998 224.079 17.947L232.021 5.59309C233.04 4.00652 235.5 4.7289 235.5 6.61503Z" fill="#5060EE"/>
<circle cx="209.339" cy="19.1785" r="4.16871" fill="#2735C2"/>
<defs>
<filter id="filter0_d_26137_145037" x="-3" y="163" width="191" height="265" filterUnits="userSpaceOnUse" color-interpolation-filters="sRGB">
<feFlood flood-opacity="0" result="BackgroundImageFix"/>
<feColorMatrix in="SourceAlpha" type="matrix" values="0 0 0 0 0 0 0 0 0 0 0 0 0 0 0 0 0 0 127 0" result="hardAlpha"/>
<feOffset dy="15"/>
<feGaussianBlur stdDeviation="17.5"/>
<feColorMatrix type="matrix" values="0 0 0 0 0.129412 0 0 0 0 0.133333 0 0 0 0 0.145098 0 0 0 0.08 0"/>
<feBlend mode="normal" in2="BackgroundImageFix" result="effect1_dropShadow_26137_145037"/>
<feBlend mode="normal" in="SourceGraphic" in2="effect1_dropShadow_26137_145037" result="shape"/>
</filter>
<filter id="filter1_d_26137_145037" x="232" y="190.054" width="190.5" height="237.946" filterUnits="userSpaceOnUse" color-interpolation-filters="sRGB">
<feFlood flood-opacity="0" result="BackgroundImageFix"/>
<feColorMatrix in="SourceAlpha" type="matrix" values="0 0 0 0 0 0 0 0 0 0 0 0 0 0 0 0 0 0 127 0" result="hardAlpha"/>
<feOffset dy="15"/>
<feGaussianBlur stdDeviation="17.5"/>
<feColorMatrix type="matrix" values="0 0 0 0 0.129412 0 0 0 0 0.133333 0 0 0 0 0.145098 0 0 0 0.08 0"/>
<feBlend mode="normal" in2="BackgroundImageFix" result="effect1_dropShadow_26137_145037"/>
<feBlend mode="normal" in="SourceGraphic" in2="effect1_dropShadow_26137_145037" result="shape"/>
</filter>
<filter id="filter2_d_26137_145037" x="110" y="124" width="200" height="304" filterUnits="userSpaceOnUse" color-interpolation-filters="sRGB">
<feFlood flood-opacity="0" result="BackgroundImageFix"/>
<feColorMatrix in="SourceAlpha" type="matrix" values="0 0 0 0 0 0 0 0 0 0 0 0 0 0 0 0 0 0 127 0" result="hardAlpha"/>
<feOffset dy="15"/>
<feGaussianBlur stdDeviation="17.5"/>
<feColorMatrix type="matrix" values="0 0 0 0 0.129412 0 0 0 0 0.133333 0 0 0 0 0.145098 0 0 0 0.08 0"/>
<feBlend mode="normal" in2="BackgroundImageFix" result="effect1_dropShadow_26137_145037"/>
<feBlend mode="normal" in="SourceGraphic" in2="effect1_dropShadow_26137_145037" result="shape"/>
</filter>
<linearGradient id="paint0_linear_26137_145037" x1="210" y1="144" x2="210" y2="378" gradientUnits="userSpaceOnUse">
<stop stop-color="#3547E9"/>
<stop offset="1" stop-color="#2E0DBE"/>
</linearGradient>
</defs>
</svg>

<svg width="419" height="428" viewBox="0 0 419 428" fill="none" xmlns="http://www.w3.org/2000/svg"><g filter="url(#filter0_d_26137_145037)"><path d="M32 195h121v183H32V195Z" fill="#3443E4"/><path d="M98.276 238.438c0 1.419-.28 2.782-.84 4.088a19.593 19.593 0 0 1-2.184 3.808 32.423 32.423 0 0 1-3.024 3.472 128.743 128.743 0 0 1-3.304 3.192c-.56.523-1.176 1.12-1.848 1.792a46.002 46.002 0 0 0-1.848 1.96 57.047 57.047 0 0 0-1.624 1.904c-.448.56-.728 1.027-.84 1.4h16.688v7H73.58c-.075-.41-.112-.933-.112-1.568v-1.344c0-1.792.28-3.434.84-4.928a18.686 18.686 0 0 1 2.296-4.144 26.487 26.487 0 0 1 3.136-3.64c1.195-1.12 2.37-2.24 3.528-3.36.896-.858 1.736-1.661 2.52-2.408a35.698 35.698 0 0 0 2.072-2.24c.597-.746 1.064-1.474 1.4-2.184a5.415 5.415 0 0 0 .504-2.24c0-1.642-.467-2.8-1.4-3.472-.933-.672-2.09-1.008-3.472-1.008-1.008 0-1.96.168-2.856.504-.859.299-1.661.672-2.408 1.12-.71.411-1.325.84-1.848 1.288a13.94 13.94 0 0 0-1.176 1.008l-4.144-5.824c1.643-1.53 3.547-2.781 5.712-3.752 2.203-1.008 4.555-1.512 7.056-1.512 2.277 0 4.237.262 5.88.784 1.643.523 2.987 1.27 4.032 2.24a8.005 8.005 0 0 1 2.352 3.472c.523 1.344.784 2.875.784 4.592Z" fill="white"/><path d="M39.526 183 32 195h121l-8.105-12H39.526Z" fill="#6371FF"/></g><g filter="url(#filter1_d_26137_145037)"><path d="M267 222h120v156H267V222Z" fill="#3443E4"/><path d="M326.268 292.894c-1.008 0-2.072-.074-3.192-.224a29.493 29.493 0 0 1-3.248-.504 34.935 34.935 0 0 1-2.856-.728c-.859-.261-1.531-.504-2.016-.728l1.624-6.944c.971.411 2.203.859 3.696 1.344 1.531.448 3.416.672 5.656.672 2.576 0 4.461-.485 5.656-1.456 1.195-.97 1.792-2.277 1.792-3.92 0-1.008-.224-1.848-.672-2.52a4.428 4.428 0 0 0-1.736-1.68c-.747-.448-1.643-.746-2.688-.896a17.903 17.903 0 0 0-3.248-.28h-3.248v-6.72h3.696c.821 0 1.605-.074 2.352-.224.784-.149 1.475-.392 2.072-.728a4.017 4.017 0 0 0 1.4-1.456c.373-.634.56-1.418.56-2.352 0-.709-.149-1.325-.448-1.848a3.908 3.908 0 0 0-1.176-1.288c-.448-.336-.989-.578-1.624-.728a6.178 6.178 0 0 0-1.848-.28c-1.605 0-3.099.243-4.48.728a18.897 18.897 0 0 0-3.696 1.792l-2.968-6.104a31.837 31.837 0 0 1 2.072-1.176c.821-.41 1.717-.784 2.688-1.12a24.721 24.721 0 0 1 3.08-.84 17.958 17.958 0 0 1 3.528-.336c2.277 0 4.237.28 5.88.84 1.68.523 3.061 1.288 4.144 2.296a8.972 8.972 0 0 1 2.408 3.472c.523 1.307.784 2.744.784 4.312 0 1.531-.429 3.024-1.288 4.48a8.547 8.547 0 0 1-3.472 3.248c2.016.822 3.565 2.054 4.648 3.696 1.12 1.606 1.68 3.547 1.68 5.824 0 1.792-.299 3.454-.896 4.984-.597 1.494-1.531 2.8-2.8 3.92-1.269 1.083-2.893 1.942-4.872 2.576-1.941.598-4.256.896-6.944.896Z" fill="white"/><path d="m274.964 210.054-7.464 12h120l-8.038-12H274.964Z" fill="#6371FF"/></g><g filter="url(#filter2_d_26137_145037)"><path d="M145 144h130v234H145V144Z" fill="url(#paint0_linear_26137_145037)"/></g><path d="M197.42 184.31a63.033 63.033 0 0 0 3.36-1.512 51.348 51.348 0 0 0 3.472-1.904 52.713 52.713 0 0 0 3.192-2.184 22.725 22.725 0 0 0 2.8-2.464h5.824v38.808h-8.344V187.11a27.222 27.222 0 0 1-3.752 2.072 55.214 55.214 0 0 1-4.032 1.568l-2.52-6.44Z" fill="white"/><path d="m152.586 132.054-8.086 12h130l-8.708-12H152.586Z" fill="#6371FF"/><path d="M195.86 6.562c.456-.562 1.196-.562 1.653 0l5.872 7.228c.457.561.457 1.472 0 2.034l-5.872 7.228c-.457.562-1.197.562-1.653 0l-5.873-7.228c-.457-.562-.457-1.473 0-2.034l5.873-7.228ZM221.498 6.562c.457-.562 1.197-.562 1.654 0l5.872 7.228c.457.561.457 1.472 0 2.034l-5.872 7.228c-.457.562-1.197.562-1.653 0l-5.873-7.228c-.457-.562-.457-1.473 0-2.034l5.872-7.228Z" fill="#2735C2"/><path d="M235.5 6.615v25.418c0 1.518-1.731 2.475-3.061 1.742-4.523-2.493-13.5-6.645-23.12-6.645-9.538 0-18.271 4.083-22.723 6.582-1.335.749-3.096-.21-3.096-1.74V6.434c0-1.886 2.46-2.608 3.479-1.021l7.927 12.33a1.89 1.89 0 0 0 3.182-.003l9.654-15.094a1.89 1.89 0 0 1 3.176-.014l9.988 15.325a1.89 1.89 0 0 0 3.173-.01l7.942-12.354c1.019-1.586 3.479-.864 3.479 1.022Z" fill="#5060EE"/><circle cx="209.339" cy="19.1785" r="4.16871" fill="#2735C2"/><defs><filter id="filter0_d_26137_145037" x="-3" y="163" width="191" height="265" filterUnits="userSpaceOnUse" color-interpolation-filters="sRGB"><feFlood flood-opacity="0" result="BackgroundImageFix"/><feColorMatrix in="SourceAlpha" type="matrix" values="0 0 0 0 0 0 0 0 0 0 0 0 0 0 0 0 0 0 127 0" result="hardAlpha"/><feOffset dy="15"/><feGaussianBlur stdDeviation="17.5"/><feColorMatrix type="matrix" values="0 0 0 0 0.129412 0 0 0 0 0.133333 0 0 0 0 0.145098 0 0 0 0.08 0"/><feBlend mode="normal" in2="BackgroundImageFix" result="effect1_dropShadow_26137_145037"/><feBlend mode="normal" in="SourceGraphic" in2="effect1_dropShadow_26137_145037" result="shape"/></filter><filter id="filter1_d_26137_145037" x="232" y="190.054" width="190.5" height="237.946" filterUnits="userSpaceOnUse" color-interpolation-filters="sRGB"><feFlood flood-opacity="0" result="BackgroundImageFix"/><feColorMatrix in="SourceAlpha" type="matrix" values="0 0 0 0 0 0 0 0 0 0 0 0 0 0 0 0 0 0 127 0" result="hardAlpha"/><feOffset dy="15"/><feGaussianBlur stdDeviation="17.5"/><feColorMatrix type="matrix" values="0 0 0 0 0.129412 0 0 0 0 0.133333 0 0 0 0 0.145098 0 0 0 0.08 0"/><feBlend mode="normal" in2="BackgroundImageFix" result="effect1_dropShadow_26137_145037"/><feBlend mode="normal" in="SourceGraphic" in2="effect1_dropShadow_26137_145037" result="shape"/></filter><filter id="filter2_d_26137_145037" x="110" y="124" width="200" height="304" filterUnits="userSpaceOnUse" color-interpolation-filters="sRGB"><feFlood flood-opacity="0" result="BackgroundImageFix"/><feColorMatrix in="SourceAlpha" type="matrix" values="0 0 0 0 0 0 0 0 0 0 0 0 0 0 0 0 0 0 127 0" result="hardAlpha"/><feOffset dy="15"/><feGaussianBlur stdDeviation="17.5"/><feColorMatrix type="matrix" values="0 0 0 0 0.129412 0 0 0 0 0.133333 0 0 0 0 0.145098 0 0 0 0.08 0"/><feBlend mode="normal" in2="BackgroundImageFix" result="effect1_dropShadow_26137_145037"/><feBlend mode="normal" in="SourceGraphic" in2="effect1_dropShadow_26137_145037" result="shape"/></filter><linearGradient id="paint0_linear_26137_145037" x1="210" y1="144" x2="210" y2="378" gradientUnits="userSpaceOnUse"><stop stop-color="#3547E9"/><stop offset="1" stop-color="#2E0DBE"/></linearGradient></defs></svg>
